Papirus/24x24/apps/chromium-dev.svg

<svg xmlns="http://www.w3.org/2000/svg" width="24" height="24" version="1">
 <rect style="opacity:.2" width="8.995" height="8.986" x="-16.99" y="-16.48" rx="4.498" ry="4.493" transform="matrix(0,-1,-1,0,0,0)"/>
 <path style="fill:#6199f6" d="m 5.1450682,15.367513 c 1.7514,3.037 3.6145576,1.630808 6.8560578,1.815808 3.4563,-1.9071 4.713274,0.485179 3.818474,-2.807821 -0.37892,0.61782 -0.90432,1.1538 -1.578,1.5431 -1.0705,0.61867 -2.0616,-0.03158 -3.1649,-0.32134 -1.1189,-0.293 -2.3466,-0.238 -2.9732,-1.325 l -4.4624,-7.736 c -1.2730417,1.9362506 -1.8368061,4.267205 -1.580326,6.578952 0.1481125,1.334992 1.8278521,0.363075 2.5444137,1.605545 z"/>
 <path style="opacity:.2;fill:#ffffff" d="m11.985 2c-5.5318 0-9.985 4.4576-9.985 9.995 0 0.08396 0.00379 0.16641 0.00584 0.24987 0.1319-5.4206 4.5312-9.7448 9.9788-9.7448 5.4475 0 9.847 4.3242 9.9788 9.7448 0.002-0.08338 0.0059-0.16598 0.0059-0.24987 0-5.5374-4.453-9.995-9.985-9.995z"/>
 <path style="opacity:.2" d="m2.0058 12.255c-0.00205 0.08346-0.00584 0.16591-0.00584 0.24987 0 5.5371 4.4532 9.9947 9.9848 9.9947s9.9848-4.4576 9.9848-9.9947c0-0.08396-0.004-0.16641-0.006-0.24987-0.1318 5.4201-4.5311 9.7448-9.9788 9.7448s-9.847-4.3247-9.9788-9.7448z"/>
 <path style="fill:#396bd7" d="m12.126953 2.0097656c-0.20693-0.00292-0.412426-0.0001563-0.619141 0.00977-1.7310578 0.086359-3.4379584 0.6676671-4.9199214 1.5742188-0.00111 0.0006783-0.0028 0.00127-0.00391 0.00195l-0.00195 0.00195c-0.2180621 0.1426894-0.4304638 0.2938465-0.6367181 0.4531268-0.233767 0.1790616-0.4595031 0.368205-0.6757813 0.5664063-0.0426382 0.0373997-0.0849574 0.0751615-0.1269531 0.1132813-0.8095147 0.767599-1.4889569 1.6643793-2.0039062 2.6601562l4.5703125 7.177734c-0.3720329-0.621399-0.1798089-1.605419-0.2128906-2.382812-0.0564879-1.329362 1.1124284-1.94437 1.9902343-2.8046876 0.7647039-0.7495155 2.5636449-1.7774177 2.2396719-2.3808594h8.918531c-0.210921-0.3686989-0.445119-0.7235845-0.701172-1.0625-0.033802-0.0415252-0.067095-0.0840231-0.101562-0.125-0.195838-0.2491227-0.402971-0.48798-0.621094-0.7167969-0.097267-0.1009429-0.197394-0.2001176-0.298828-0.296875l-0.01563-0.015625c-0.0063-0.00607-0.01318-0.01153-0.01953-0.017578-0.180889-0.1723426-0.369233-0.3356088-0.562496-0.4941407-0.058169-0.0496764-0.118446-0.0962057-0.177735-0.1445313-0.08868-0.069876-0.178536-0.1382452-0.269531-0.2050781-0.221614-0.1615875-0.452638-0.3119179-0.6875-0.4550781-0.076175-0.0485649-0.153006-0.0960953-0.230469-0.1425781-0.110941-0.0599917-0.222801-0.120026-0.335937-0.1757813-0.218889-0.1144142-0.439979-0.2240496-0.667969-0.3222656-0.120926-0.0522165-0.242343-0.101043-0.365234-0.1484375-0.055159-0.0206709-0.1105-0.040854-0.166016-0.0605469-0.268446-0.0976372-0.541669-0.1850463-0.820312-0.2597656l-0.01172-0.00391c-0.144976-0.0403931-0.290847-0.0775119-0.437499-0.1113244-0.172184-0.0370467-0.345639-0.0678021-0.519531-0.0957031-0.153094-0.0263637-0.306782-0.0491563-0.460938-0.0683594-0.16287-0.0188808-0.326643-0.032119-0.490234-0.0429688-0.126818-0.0089308-0.253794-0.0154424-0.38086-0.0195312-0.05859-0.00173-0.116845-0.00518-0.175781-0.00586z"/>
 <path style="fill:#a2c2fa" d="m 20.644531,6.9980469 -8.509765,0.00391 c 0.72399,0.01959 1.4513,0.7102994 2.125,1.0996094 1.152,0.6658 1.044028,1.9811937 1.298828,3.1835937 0.22201,1.0475 1.502985,1.763734 0.923515,2.768334 l -5.596824,5.435965 c 0.05727,0.0031 0.114562,0.0057 0.171875,0.0078 0.378591,0.01539 0.757311,0.01587 1.132812,-0.01172 0.08672,-0.0093 0.173317,-0.0197 0.259766,-0.03125 0.315309,-0.03154 0.629317,-0.07743 0.939453,-0.138672 0.144583,-0.02936 0.288498,-0.06192 0.43164,-0.09766 0.2513,-0.06135 0.498318,-0.136073 0.744141,-0.216797 0.146269,-0.04484 0.291489,-0.09303 0.435547,-0.144531 0.345071,-0.131252 0.684117,-0.281713 1.013672,-0.451172 0.138564,-0.07553 0.275321,-0.154327 0.410156,-0.236328 0.214017,-0.123288 0.425626,-0.250964 0.63086,-0.390625 0.135121,-0.09178 0.267974,-0.186865 0.398437,-0.285157 0.252881,-0.191092 0.496691,-0.394557 0.732422,-0.611328 0.06984,-0.05959 0.138858,-0.120146 0.207031,-0.18164 0.0036,-0.0035 0.0081,-0.0062 0.01172,-0.0098 0.01241,-0.01299 0.02477,-0.02601 0.03711,-0.03906 0.193649,-0.192193 0.379351,-0.39223 0.556641,-0.59961 0.05444,-0.0633 0.109052,-0.126486 0.162109,-0.191406 0.138482,-0.169422 0.271367,-0.343344 0.398438,-0.521484 0.08222,-0.115166 0.162235,-0.231996 0.240234,-0.351563 0.113524,-0.173035 0.221649,-0.349552 0.324219,-0.529297 0.653449,-1.150138 1.61823,0.04012 1.78588,-1.279901 0.05201,-0.409542 0.08139,-0.821692 0.0886,-1.232992 2.3e-5,-0.0013 -2.3e-5,-0.0026 0,-0.0039 0.0039,-0.225455 -0.01613,-0.447553 -0.02539,-0.671875 -0.11449,-1.5058485 -0.568558,-2.9662087 -1.328125,-4.2714843 z"/>
 <rect style="opacity:.2" width="10" height="10" x="-17.5" y="-17" rx="5" ry="5" transform="matrix(0,-1,-1,0,0,0)"/>
 <rect style="fill:#ffffff" width="10" height="10" x="-17" y="-17" rx="5" ry="5" transform="matrix(0,-1,-1,0,0,0)"/>
 <rect style="fill:#4688f4" width="8" height="8" x="-16" y="-16" rx="4" ry="4" transform="matrix(0,-1,-1,0,0,0)"/>
 <path style="opacity:.2;fill:#ffffff" d="m12 2a10 10 0 0 0 -10 10 10 10 0 0 0 0.0097656 0.292969 10 10 0 0 1 9.9902344 -9.792969 10 10 0 0 1 9.990234 9.707031 10 10 0 0 0 0.009766 -0.207031 10 10 0 0 0 -10 -10z"/>
 <path style="fill:#315072" d="m 2.061,13 a 10,10 0 0 0 9.939453,9 10,10 0 0 0 9.949219,-9 z"/>
 <path style="opacity:0.2" d="m 7.4466391,15.509911 v 3.993901 h 1.0570027 c 0.6230815,0 1.1075479,-0.169638 1.4544924,-0.508988 0.3504828,-0.343081 0.5260288,-0.851993 0.5260288,-1.526966 0,-0.425121 -0.07618,-0.783658 -0.228408,-1.074531 C 10.103525,16.102455 9.885393,15.882368 9.6021738,15.733203 9.3224946,15.584037 8.9941793,15.509911 8.6153743,15.509911 Z m 0.4775792,0.430982 H 8.546159 c 0.4566915,0 0.8081982,0.124577 1.0560148,0.374428 0.2513566,0.246124 0.3777129,0.635847 0.3777129,1.169114 0,1.059073 -0.5138466,1.588394 -1.5405147,1.588394 H 7.9242183 Z m 4.3763297,0.567493 c -0.261602,0 -0.492192,0.0612 -0.691156,0.183314 -0.195281,0.122116 -0.348258,0.296366 -0.458793,0.522639 -0.106852,0.226274 -0.160182,0.497148 -0.160182,0.813212 0,0.323247 0.05909,0.594121 0.176991,0.813211 0.121589,0.21909 0.289585,0.384972 0.503288,0.496312 0.213702,0.111341 0.46183,0.166738 0.745538,0.166738 0.202649,0 0.37766,-0.01643 0.525041,-0.04876 0.14738,-0.02873 0.29685,-0.07479 0.447916,-0.139435 v -0.415381 c -0.15475,0.06465 -0.305479,0.115221 -0.45286,0.151136 -0.143697,0.03233 -0.310433,0.04875 -0.498344,0.04875 -0.294762,0 -0.524363,-0.08471 -0.690167,-0.253519 -0.16212,-0.172398 -0.246749,-0.522449 -0.254115,-0.849289 h 0.0029 v 0.0088 h 2.025016 v -0.19404 c 0,-0.262189 -0.04982,-0.490553 -0.149306,-0.684501 -0.0958,-0.197539 -0.236004,-0.349561 -0.42023,-0.45731 -0.184226,-0.107749 -0.401056,-0.161862 -0.651604,-0.161862 z m 1.626537,0 1.112375,2.995426 h 0.553715 l 1.118308,-2.995426 H 16.19633 l -0.624908,1.765858 c -0.02923,0.08196 -0.06105,0.173403 -0.09393,0.273996 -0.03289,0.09687 -0.06371,0.193705 -0.09295,0.290572 -0.02923,0.09314 -0.04935,0.169531 -0.06032,0.229142 h -0.02175 c -0.01096,-0.05961 -0.02881,-0.136001 -0.05438,-0.229142 -0.02557,-0.09314 -0.05511,-0.18998 -0.088,-0.290572 -0.03289,-0.100593 -0.06371,-0.192032 -0.09295,-0.273996 l -0.624907,-1.765858 z m -1.632471,0.388079 c 0.246864,0 0.427629,0.07665 0.54185,0.231093 0.07743,0.102264 0.119707,0.234123 0.146339,0.379303 h -1.429772 c 0.04065,-0.153789 0.09736,-0.290928 0.188857,-0.390029 0.136327,-0.147258 0.320601,-0.220367 0.552726,-0.220367 z"/>
 <path style="fill:#ffffff" d="m 10.484163,16.968468 q 0,1.012459 -0.5257246,1.52708 -0.5204156,0.509026 -1.455038,0.509026 H 7.4466391 V 15.010673 H 8.614917 q 0.568209,0 0.9877263,0.223749 0.4248287,0.223747 0.6531747,0.660056 0.228345,0.436308 0.228345,1.07399 z m -0.5044842,0.01678 q 0,-0.799899 -0.3770355,-1.169083 -0.3717249,-0.374777 -1.0567611,-0.374777 h -0.621311 v 3.13247 h 0.5151051 q 1.5400025,0 1.5400025,-1.58861 z"/>
 <path style="fill:#ffffff" d="m 12.300548,16.009149 c -0.261602,0 -0.492192,0.0612 -0.691156,0.183314 -0.195281,0.122116 -0.348258,0.296365 -0.458793,0.522638 -0.106852,0.226273 -0.160182,0.497148 -0.160182,0.813212 0,0.323247 0.05909,0.594121 0.176991,0.813211 0.121589,0.21909 0.289585,0.384972 0.503288,0.496313 0.213702,0.111341 0.46183,0.166737 0.745538,0.166737 0.202649,0 0.37766,-0.01643 0.525041,-0.04875 0.14738,-0.02873 0.29685,-0.07479 0.447916,-0.139436 v -0.415381 c -0.15475,0.06465 -0.305479,0.115221 -0.45286,0.151136 -0.143697,0.03233 -0.310433,0.04876 -0.498344,0.04876 -0.294762,0 -0.524363,-0.08471 -0.690167,-0.253519 -0.16212,-0.172399 -0.246749,-0.52245 -0.254115,-0.849289 h 0.0029 v 0.0088 h 2.025016 v 0 -0.19404 c 0,-0.26219 -0.04982,-0.490554 -0.149306,-0.684502 -0.0958,-0.197539 -0.236004,-0.349559 -0.42023,-0.457308 -0.184226,-0.107749 -0.401056,-0.161862 -0.651604,-0.161862 z m -0.006,0.388079 c 0.246863,0 0.427629,0.07665 0.541849,0.231092 0.07743,0.102264 0.119708,0.234123 0.146341,0.379304 h -1.429773 c 0.04065,-0.15379 0.09736,-0.290928 0.188856,-0.39003 0.136329,-0.147257 0.320603,-0.220366 0.552727,-0.220366 z"/>
 <path style="fill:#ffffff" d="M 15.039352,19.004574 13.92669,16.009149 h 0.515223 l 0.624845,1.76596 q 0.04385,0.122946 0.09318,0.273835 0.04933,0.150889 0.0877,0.290601 0.03837,0.139712 0.05481,0.229128 h 0.02192 q 0.01645,-0.08942 0.0603,-0.229128 0.04385,-0.1453 0.09318,-0.290601 0.04933,-0.150889 0.09318,-0.273835 l 0.624844,-1.76596 h 0.515223 l -1.118143,2.995425 z"/>
</svg>

<svg xmlns="http://www.w3.org/2000/svg" width="24" height="24" version="1">
 <circle style="opacity:0.2" cx="12" cy="12.5" r="10"/>
 <path style="fill:#6199f6" d="M 3.348,17.021 C 5.099,20.058 8.185,19.815 11.426,20 14.882,18.093 16.714,17.668 15.82,14.375 15.441,14.993 14.916,15.529 14.242,15.918 13.171,16.537 12.18,15.886 11.077,15.597 9.958,15.304 8.73,15.359 8.104,14.272 L 3.642,6.536 C 1.634,9.59 1.391,13.627 3.348,17.021 Z"/>
 <path style="fill:#396bd7" d="M 12.127,2 C 10.82,2 8.789,2.248 6.588,3.594 6.587,3.594 6.585,3.595 6.584,3.596 L 6.582,3.598 C 5.509,4.3 4.117,5.498 3.139,7.391 L 7.709,14.568 C 7.337,13.947 7.529,12.963 7.496,12.186 7.44,10.856 8.608,10.241 9.486,9.381 10.251,8.631 12.05,7.603 11.726,7 H 20.645 C 20.03,5.855 19.125,4.954 18.146,4.127 15.828,2.3 13.324,2 12.127,2 Z"/>
 <path style="fill:#a2c2fa" d="M 20.645,6.998 12.135,7.002 C 12.859,7.021 13.586,7.712 14.26,8.102 15.412,8.767 15.304,10.083 15.559,11.285 15.781,12.333 17.062,13.049 16.482,14.053 L 11.447,19.973 C 11.505,19.976 11.562,19.978 11.619,19.98 15.313,20.131 18.819,20.212 20.686,16.941 21.542,15.434 22,13.682 22,11.945 V 11.941 C 22,11.716 21.982,11.494 21.973,11.269 21.858,9.764 21.404,8.303 20.645,6.998 Z"/>
 <path style="opacity:0.2;fill:#ffffff" d="M 12,2 A 10,10 0 0 0 2,12 10,10 0 0 0 2.0098,12.293 10,10 0 0 1 12,2.5 10,10 0 0 1 21.99,12.207 10,10 0 0 0 22,12 10,10 0 0 0 12,2 Z"/>
 <circle style="opacity:0.2" cx="12" cy="12.5" r="5"/>
 <circle style="fill:#ffffff" cx="12" cy="12" r="5"/>
 <circle style="fill:#4688f4" cx="12" cy="12" r="4"/>
 <path style="fill:#315072" d="m 2.061,13 a 10,10 0 0 0 9.939,9 10,10 0 0 0 9.949,-9 z"/>
 <path style="opacity:0.2" d="M 7.4466,15.51 V 19.504 H 8.5036 C 9.1267,19.504 9.6112,19.334 9.9581,18.995 10.309,18.652 10.484,18.143 10.484,17.468 10.484,17.043 10.408,16.684 10.256,16.393 10.104,16.102 9.8854,15.882 9.6022,15.733 9.3225,15.584 8.9942,15.51 8.6154,15.51 Z M 7.9242,15.941 H 8.5462 C 9.0029,15.941 9.3544,16.065 9.6022,16.315 9.8535,16.561 9.9799,16.951 9.9799,17.484 9.9799,18.544 9.466,19.073 8.4394,19.073 H 7.9242 Z M 12.301,16.508 C 12.039,16.508 11.808,16.57 11.609,16.692 11.414,16.814 11.261,16.988 11.151,17.214 11.044,17.441 10.99,17.711 10.99,18.028 10.99,18.351 11.05,18.622 11.167,18.841 11.289,19.06 11.457,19.226 11.671,19.337 11.884,19.448 12.133,19.504 12.416,19.504 12.619,19.504 12.794,19.487 12.941,19.455 13.089,19.426 13.238,19.38 13.389,19.316 V 18.9 C 13.234,18.965 13.084,19.015 12.936,19.051 12.793,19.084 12.626,19.1 12.438,19.1 12.143,19.1 11.914,19.015 11.748,18.847 11.586,18.674 11.507,18.327 11.5,18 L 13.522,18.006 V 17.812 C 13.522,17.55 13.472,17.322 13.372,17.128 13.277,16.93 13.136,16.778 12.952,16.67 12.768,16.563 12.551,16.508 12.3,16.508 Z M 13.927,16.508 15.039,19.504 H 15.593 L 16.711,16.508 H 16.196 L 15.324,19.068 H 15.302 L 14.442,16.508 Z M 12.295,16.896 C 12.541,16.896 12.722,16.973 12.836,17.128 12.914,17.23 12.956,17.362 12.983,17.507 H 11.553 C 11.594,17.353 11.65,17.216 11.742,17.117 11.878,16.97 12.062,16.896 12.295,16.896 Z"/>
 <path style="fill:#ffffff" d="M 15.039,19.005 13.927,16.009 H 14.442 L 15.302,18.569 H 15.324 L 16.196,16.009 H 16.711 L 15.593,19.005 Z M 12.301,16.009 C 12.039,16.009 11.808,16.07 11.609,16.192 11.414,16.315 11.261,16.489 11.151,16.715 11.044,16.941 10.99,17.212 10.99,17.528 10.99,17.852 11.05,18.122 11.167,18.342 11.289,18.561 11.457,18.726 11.671,18.838 11.884,18.949 12.133,19.005 12.416,19.005 12.619,19.005 12.794,18.988 12.941,18.956 13.089,18.927 13.238,18.881 13.389,18.816 V 18.401 C 13.234,18.466 13.084,18.516 12.936,18.552 12.793,18.584 12.626,18.601 12.438,18.601 12.143,18.601 11.914,18.516 11.748,18.347 11.586,18.175 11.507,17.827 11.5,17.5 L 13.522,17.507 V 17.313 C 13.522,17.051 13.472,16.822 13.372,16.628 13.277,16.431 13.136,16.279 12.952,16.171 12.768,16.063 12.551,16.009 12.3,16.009 Z M 12.295,16.397 C 12.541,16.397 12.722,16.474 12.836,16.628 12.914,16.731 12.956,16.862 12.983,17.008 H 11.553 C 11.594,16.854 11.65,16.717 11.742,16.618 11.878,16.47 12.062,16.397 12.295,16.397 Z M 10.484,16.968 C 10.484,17.643 10.309,18.153 9.9584,18.496 9.6115,18.835 9.1265,19.005 8.5034,19.005 H 7.4466 V 15.011 H 8.6149 C 8.9937,15.011 9.3229,15.085 9.6026,15.234 9.8855,15.383 10.103,15.603 10.256,15.894 10.408,16.185 10.484,16.543 10.484,16.968 Z M 9.9797,16.985 C 9.9797,16.452 9.854,16.062 9.6026,15.816 9.3548,15.566 9.0026,15.441 8.5459,15.441 H 7.9246 V 18.574 H 8.4397 C 9.4664,18.574 9.9797,18.044 9.9797,16.985 Z"/>
</svg>
